lib/flags/s/231.svg

<svg xmlns="http://www.w3.org/2000/svg" fill="none" viewBox="0 0 16 12"><mask id="231_svg__a" width="16" height="12" x="0" y="0" mask-type="alpha" maskUnits="userSpaceOnUse"><path fill="#fff" d="M0 0H16V12H0z"/></mask><g mask="url(#231_svg__a)"><path fill="#FECA00" fill-rule="evenodd" d="M0 0V12H16V0H0Z" clip-rule="evenodd"/><mask id="231_svg__b" width="16" height="12" x="0" y="0" mask-type="alpha" maskUnits="userSpaceOnUse"><path fill="#fff" fill-rule="evenodd" d="M0 0V12H16V0H0Z" clip-rule="evenodd"/></mask><g mask="url(#231_svg__b)"><path fill="#5EAA22" fill-rule="evenodd" d="M0 0V4H16V0H0Z" clip-rule="evenodd"/><path fill="#E31D1C" fill-rule="evenodd" d="M0 8V12H16V8H0Z" clip-rule="evenodd"/><path fill="#2B77B8" fill-rule="evenodd" d="M8 9C9.65685 9 11 7.65685 11 6C11 4.34315 9.65685 3 8 3C6.34315 3 5 4.34315 5 6C5 7.65685 6.34315 9 8 9Z" clip-rule="evenodd"/><path stroke="#FECA00" stroke-width=".75" d="M8.00003 7L6.61901 7.46326L7.04897 6.30902L6.11224 5.19098H7.41224L8.00003 4L8.58781 5.19098H9.91647L8.95108 6.30902L9.29375 7.46326L8.00003 7Z" clip-rule="evenodd"/><path stroke="#2B77B8" stroke-width=".5" d="M7.84806 6.01721 6.80573 8.19728M7.68402 5.73975H5.68402M8.06073 6.41882 10.0153 7.3209M8.48334 5.9369 9.89813 4.38831"/></g></g></svg>

<svg xmlns="http://www.w3.org/2000/svg" fill="none" viewBox="0 0 16 12"><mask id="231_svg__a" width="16" height="12" x="0" y="0" maskUnits="userSpaceOnUse"><path fill="#fff" d="M0 0h16v12H0z"/></mask><g mask="url(#231_svg__a)"><path fill="#FECA00" fill-rule="evenodd" d="M0 0v12h16V0H0z" clip-rule="evenodd"/><mask id="231_svg__b" width="16" height="12" x="0" y="0" maskUnits="userSpaceOnUse"><path fill="#fff" fill-rule="evenodd" d="M0 0v12h16V0H0z" clip-rule="evenodd"/></mask><g mask="url(#231_svg__b)"><path fill="#5EAA22" fill-rule="evenodd" d="M0 0v4h16V0H0z" clip-rule="evenodd"/><path fill="#E31D1C" fill-rule="evenodd" d="M0 8v4h16V8H0z" clip-rule="evenodd"/><path fill="#2B77B8" fill-rule="evenodd" d="M8 9a3 3 0 100-6 3 3 0 000 6z" clip-rule="evenodd"/><path stroke="#FECA00" stroke-width=".75" d="M8 7l-1.381.463.43-1.154-.937-1.118h1.3L8 4l.588 1.191h1.328l-.965 1.118.343 1.154L8 7z" clip-rule="evenodd"/><path stroke="#2B77B8" stroke-width=".5" d="M7.848 6.017l-1.042 2.18m.878-2.457h-2m2.376.679l1.955.902M8.483 5.937l1.415-1.549"/></g></g></svg>
